assets/icons/qvision/sports_esports.svg

<svg width="24" height="24" viewBox="0 0 24 24" fill="none" xmlns="http://www.w3.org/2000/svg">
<g clip-path="url(#clip0_147_6746)">
<path d="M21.5798 16.09L20.4898 8.43C20.2098 6.46 18.5198 5 16.5298 5H7.46982C5.47982 5 3.78982 6.46 3.50982 8.43L2.41982 16.09C2.19982 17.63 3.38982 19 4.93982 19C5.61982 19 6.25982 18.73 6.73982 18.25L8.99982 16H14.9998L17.2498 18.25C17.7298 18.73 18.3798 19 19.0498 19C20.6098 19 21.7998 17.63 21.5798 16.09ZM10.9998 11H8.99982V13H7.99982V11H5.99982V10H7.99982V8H8.99982V10H10.9998V11ZM14.9998 10C14.4498 10 13.9998 9.55 13.9998 9C13.9998 8.45 14.4498 8 14.9998 8C15.5498 8 15.9998 8.45 15.9998 9C15.9998 9.55 15.5498 10 14.9998 10ZM16.9998 13C16.4498 13 15.9998 12.55 15.9998 12C15.9998 11.45 16.4498 11 16.9998 11C17.5498 11 17.9998 11.45 17.9998 12C17.9998 12.55 17.5498 13 16.9998 13Z" fill="#323232"/>
</g>
<defs>
<clipPath id="clip0_147_6746">
<rect width="24" height="24" fill="white"/>
</clipPath>
</defs>
</svg>

<svg xmlns="http://www.w3.org/2000/svg" enable-background="new 0 0 24 24" height="24" viewBox="0 0 24 24" width="24"><g><rect fill="none" height="24" width="24"/></g><g><g><path d="M21.58,16.09l-1.09-7.66C20.21,6.46,18.52,5,16.53,5H7.47C5.48,5,3.79,6.46,3.51,8.43l-1.09,7.66 C2.2,17.63,3.39,19,4.94,19h0c0.68,0,1.32-0.27,1.8-0.75L9,16h6l2.25,2.25c0.48,0.48,1.13,0.75,1.8,0.75h0 C20.61,19,21.8,17.63,21.58,16.09z M11,11H9v2H8v-2H6v-1h2V8h1v2h2V11z M15,10c-0.55,0-1-0.45-1-1c0-0.55,0.45-1,1-1s1,0.45,1,1 C16,9.55,15.55,10,15,10z M17,13c-0.55,0-1-0.45-1-1c0-0.55,0.45-1,1-1s1,0.45,1,1C18,12.55,17.55,13,17,13z"/></g></g></svg>
